Obsidian/actions/24s/semi-starred.svg

<svg height="24" viewBox="0 0 24 24" width="24" xmlns="http://www.w3.org/2000/svg"><g fill="#bebebe"><path d="m12 4.3916015v12.0156245l4.943359 3.201172-1.515625-5.691406 4.572266-3.714844-5.880859-.3164059z"/><path d="m12 4.3916015-2.1191406 5.4941406-5.8808594.3164059 4.5722656 3.714844-1.515625 5.691406 4.9433594-3.201172z" opacity=".3"/></g></svg>

<svg xmlns="http://www.w3.org/2000/svg" width="24" height="24" version="1.1" viewBox="0 0 24 24">
 <defs>
  <style id="current-color-scheme" type="text/css">
   .ColorScheme-Text { color:#bebebe; } .ColorScheme-Highlight { color:#4285f4; }
  </style>
 </defs>
 <path style="fill:currentColor" class="ColorScheme-Text" d="M 12,4.3916015 V 16.407226 L 16.943359,19.608398 15.427734,13.916992 20,10.202148 14.119141,9.8857421 Z"/>
 <path style="opacity:0.3;fill:currentColor" class="ColorScheme-Text" d="M 12,4.3916015 9.8808594,9.8857421 4,10.202148 8.5722656,13.916992 7.0566406,19.608398 12,16.407226 Z"/>
</svg>
